X: 880
T: Gönül O Turra
C: Yahyâ Nazîm Çelebi
O: Turkey
F: http://compmusic.upf.edu/node/140
N: buselik--murabba--zencir--gonul_o_turra--yahya_nazim_celebi
N: makam= buselik
N: form= murabba
N: usul= zencir = 120/4
M: 120/4
L: 1/16
K: C    
Q: 1/4=60
%%MIDI tuningsystem comma53
A4 d4 e8  | e2 d2 e2 d2 c2 d4 e4 z2 e4 g2 f3e d2  | \
w:   |   | 
e2 z2 e4 g2 f3e d2  | 
w:   | 
e2 e4 z4 d4 e4 e2 f2 e4 d4 f2  | e2 d2 c4 e2 d2 c2 c2  | \
w:   |   | 
B4 c2 z2 d2 c2 B2 B2  | 
w:   | 
A2 ^G2 B2 A12 z4 B2 c8  | B2 A2 c2 B2 A2 B2 A2 ^GF  | \
w:   |   | 
^G2 A2 G2 A4 c2 B2 c6 d4 e2 d2 ^c3B  | 
w:   | 
^c2 d2 c4 d2 c2 d4  | e2 g2 fe d4 e4 d4 f2 e2 d2 c3B A4  | \
w:   |   | 
e4 e2 e2 e2 ^g2 f2 e2  | 
w:   | 
e6 z2 b2 a4 ^g2  | ^g2 f2 e2 f2 g2 ab a2 g2  | \
w:   |   | 
f4 e4 z4 e2 e2  | e6 d2 e3d c4  | 
w:   |   | 
z2 d2 c2 B2 A4 e2 d2  | d2 c6 B2 c2 B2 A2  | \
w:   |   | 
z4 A2 A2 A4 B2 A2  | z2 G4 c2 B2 A2 c2 B2  | 
w:   |   | 
A2 A8 z2 g4  | g2 f4 a2 g2 f2 e4  | g2 f2 e2 d4 f2 e2 d2  | \
w:   |   |   | 
c2 B2 A2 ^G2 A4 B2 c2  | 
w:   | 
d4 e4 d2 c2 B2 A2  | B2 A2 ^G2 A2 A12 z4 z2 A4 A2  | \
w:   |   | 
f6 e2 f2 g2 a2 g2  | 
w:   | 
f2 e2 f4 z2 f4 a2  | g3f e4 z2 d4 f2  | \
w:   |   | 
e2 d2 c2 B2 c2 d2 c2 B2  | A4 f2 f2 z2 f4 e2  | 
w:   |   | 
f2 g2 f2 e2 z2 d4 e2  | d2 f2 e2 d2 d8  | \
w:   |   | 
e3d c2 d2 e2 f2 e2 d2  | d8 z2 A4 A2  | 
w:   |   | 
f6 e2 f2 g2 a2 g2  | f2 e2 f4 z2 f4 a2  | \
w:   |   | 
g3f e4 z2 d4 f2  | e2 d2 c2 B2 c2 Bc d2 e2  | 
w:   |   | 
c3B A2 d2 z2 d4 c2  | a3g g4 g4 g2 g2  | \
w:   |   | 
g2 _7/8b2 a2 g2 f2 e2 f4  | z2 a2 g2 f2 f2 e2 e2 d2  | 
w:   |   | 
d2 e4 d2 c2 B2 c4  | z4 A2 A2 f6 e2  | \
w:   |   | 
d2 c2 B2 c2 z2 d2 c2 B2  | A4 e2 d2 d2 c6  | 
w:   |   | 
B2 c2 B2 A2 z4 A2 A2  | A4 B2 A2 z2 G4 c2  | \
w:   |   | 
B2 A2 B2 A2 A8  | z2 g4 g2 f4 a2 g2  | 
w:   |   | 
f2 e4 g2 f2 e2 d4  | f2 e2 d2 c2 B2 A2 ^G2 A4 B2 c2 d4 e4 d2  | \
w:   |   | 
c2 B2 A2 B2 A2 ^G2 A2 A12 z4 |
w:   | 


